src/assets/help-settings-icon.svg

<svg width="27" height="27" viewBox="0 0 27 27" fill="none" xmlns="http://www.w3.org/2000/svg">
<path d="M13.5 0C6.04487 0 0 6.04487 0 13.5C0 20.9551 6.04487 27 13.5 27C20.9551 27 27 20.9551 27 13.5C27 6.04487 20.9551 0 13.5 0ZM14.7174 19.6895C14.6873 20.7623 13.8917 21.4252 12.8612 21.3951C11.8728 21.365 11.0953 20.6598 11.1254 19.581C11.1556 18.5083 11.9752 17.8272 12.9636 17.8574C14.0002 17.8875 14.7536 18.6167 14.7174 19.6895ZM17.6525 12.0174C17.3993 12.373 16.8328 12.831 16.1217 13.3855L15.3321 13.9279C14.9464 14.2232 14.7054 14.5728 14.5788 14.9705C14.5125 15.1815 14.4643 15.7299 14.4522 16.0975C14.4462 16.1699 14.404 16.3326 14.181 16.3326H11.8246C11.5775 16.3326 11.5473 16.1879 11.5533 16.1156C11.5895 15.1152 11.7342 14.2895 12.15 13.6266C12.7105 12.7346 14.2895 11.7944 14.2895 11.7944C14.5306 11.6136 14.7174 11.4208 14.8621 11.2098C15.1272 10.8482 15.3442 10.4444 15.3442 10.0105C15.3442 9.51027 15.2237 9.03415 14.9042 8.63638C14.5306 8.17232 14.1268 7.94933 13.3493 7.94933C12.5839 7.94933 12.1379 8.33504 11.8185 8.84129C11.4991 9.34754 11.5533 9.9442 11.5533 10.4866H8.6183C8.6183 8.4375 9.15469 7.12969 10.2877 6.35826C11.0531 5.83393 12.0295 5.60491 13.1685 5.60491C14.6632 5.60491 15.8504 5.88214 16.8991 6.67768C17.8694 7.41295 18.3817 8.44955 18.3817 9.84777C18.3817 10.7096 18.0804 11.4328 17.6525 12.0174Z" fill="#CACACA"/>
</svg>

<svg width="27" height="27" fill="none" xmlns="http://www.w3.org/2000/svg"><path d="M13.5 0C6.045 0 0 6.045 0 13.5S6.045 27 13.5 27 27 20.955 27 13.5 20.955 0 13.5 0zm1.217 19.69c-.03 1.072-.825 1.735-1.856 1.705-.988-.03-1.766-.735-1.736-1.814.03-1.073.85-1.754 1.839-1.724 1.036.03 1.79.76 1.753 1.832zm2.935-7.673c-.253.356-.82.814-1.53 1.369l-.79.542a2.09 2.09 0 00-.753 1.042c-.067.211-.115.76-.127 1.127-.006.073-.048.236-.271.236h-2.356c-.247 0-.278-.145-.272-.217.036-1 .181-1.826.597-2.49.56-.891 2.14-1.832 2.14-1.832a2.5 2.5 0 00.572-.584c.265-.362.482-.766.482-1.2 0-.5-.12-.976-.44-1.374-.373-.464-.777-.687-1.555-.687-.765 0-1.211.386-1.53.892-.32.507-.266 1.103-.266 1.646H8.618c0-2.05.537-3.357 1.67-4.129.765-.524 1.742-.753 2.88-.753 1.495 0 2.682.277 3.731 1.073.97.735 1.483 1.772 1.483 3.17 0 .862-.302 1.585-.73 2.17z" fill="#CACACA"/></svg>
